img/logo-small-white.svg

<svg width="56" height="43" viewBox="0 0 56 43" fill="none" xmlns="http://www.w3.org/2000/svg">
<path d="M0.207792 28.5278V26.619H8.79654V29.0831L2.7013 32.866V32.9007H8.79654V34.8095H0.207792V32.2413L6.1645 28.5973V28.5626H0.207792V28.5278ZM5.2987 22.4544V18.7062H3.5671V22.4197H1.97403V18.498H0.242424V24.3285H8.83117V18.2897H7.09957V22.4544H5.2987ZM1.97403 36.9613H0.242424V37.0654V42.8959V43H1.97403V40.9177H7.06494V42.8959V43H8.79654V42.8959V37.0654V36.9613H7.06494V37.0654V39.0436H1.97403V36.9613ZM7.0303 11.2793C7.20346 11.5916 7.27273 11.9387 7.27273 12.3204C7.27273 12.6675 7.20346 12.9798 7.06494 13.2575C6.92641 13.5698 6.75325 13.8128 6.47619 14.021C6.23377 14.2292 5.95671 14.4027 5.61039 14.5416C5.26407 14.6804 4.91775 14.7151 4.50216 14.7151C4.12121 14.7151 3.74026 14.6457 3.39394 14.5416C3.04762 14.4027 2.77056 14.2292 2.52814 14.021C2.28571 13.8128 2.07792 13.5351 1.93939 13.2228C1.80087 12.9104 1.7316 12.5981 1.7316 12.251C1.7316 11.904 1.80087 11.5916 1.90476 11.314C2.00866 11.0363 2.21645 10.8281 2.42424 10.6199L1.24675 9.16223C1.00433 9.33575 0.831169 9.54399 0.658009 9.78692C0.484848 10.0299 0.380952 10.2728 0.277056 10.5157C0.17316 10.7587 0.103896 11.0363 0.0692641 11.2793C0.034632 11.5569 0 11.7998 0 12.0428C0 12.7022 0.103896 13.3269 0.311688 13.9169C0.519481 14.4722 0.831169 14.958 1.21212 15.3745C1.59307 15.791 2.07792 16.1033 2.63203 16.3462C3.18615 16.5892 3.80952 16.6933 4.50216 16.6933C5.19481 16.6933 5.81818 16.5892 6.37229 16.3462C6.92641 16.1033 7.41126 15.791 7.79221 15.3745C8.17316 14.958 8.48485 14.4722 8.69264 13.9169C8.90043 13.3616 9.00433 12.7369 9.00433 12.0428C9.00433 11.4528 8.90043 10.8628 8.65801 10.3075C8.41558 9.75222 8.03463 9.30105 7.51515 8.91929L6.33766 10.481C6.64935 10.724 6.85714 10.9669 7.0303 11.2793ZM6.33766 1.56174C6.61472 1.76998 6.85714 2.01291 7.0303 2.29056C7.20346 2.60291 7.27273 2.94996 7.27273 3.33172C7.27273 3.67877 7.20346 3.99112 7.06494 4.26877C6.92641 4.58111 6.75325 4.82405 6.47619 5.03228C6.23377 5.24052 5.92208 5.41404 5.61039 5.55287C5.26407 5.69169 4.91775 5.72639 4.50216 5.72639C4.12121 5.72639 3.74026 5.65698 3.39394 5.55287C3.04762 5.41404 2.77056 5.24052 2.52814 5.03228C2.28571 4.85876 2.07792 4.58111 1.93939 4.26877C1.80087 3.99112 1.7316 3.64407 1.7316 3.29701C1.7316 2.94996 1.80087 2.63761 1.90476 2.35997C2.00866 2.08232 2.21645 1.87409 2.42424 1.66586L1.24675 0.208232C1.03896 0.381759 0.831169 0.589992 0.658009 0.83293C0.519481 1.07587 0.380952 1.31881 0.277056 1.56174C0.17316 1.83939 0.103896 2.08232 0.0692641 2.35997C0.034632 2.60291 0 2.88055 0 3.12349C0 3.78289 0.103896 4.40759 0.311688 4.99758C0.519481 5.55286 0.831169 6.03874 1.21212 6.45521C1.59307 6.87167 2.07792 7.18402 2.63203 7.42696C3.18615 7.66989 3.80952 7.77401 4.50216 7.77401C5.19481 7.77401 5.81818 7.66989 6.37229 7.42696C6.92641 7.18402 7.41126 6.87167 7.79221 6.45521C8.17316 6.03874 8.48485 5.55286 8.69264 4.99758C8.90043 4.40759 9.00433 3.78289 9.00433 3.12349C9.00433 2.53349 8.90043 1.9435 8.65801 1.38822C8.41558 0.83293 8.03463 0.381759 7.51515 0L6.33766 1.56174ZM34.4935 15.3398C35.29 15.3398 35.9481 14.6804 35.9481 13.8822V13.7086C35.9481 12.9104 35.29 12.251 34.4935 12.251C33.697 12.251 33.039 12.9104 33.039 13.7086V13.8822C33.039 14.6804 33.697 15.3398 34.4935 15.3398ZM35.9827 19.1227C35.9827 18.3245 35.3247 17.6651 34.5281 17.6651C33.7316 17.6651 33.0736 18.3245 33.0736 19.1227V21.9338L35.3593 20.3027C35.7403 20.025 35.9827 19.5738 35.9827 19.1227ZM27.4286 17.7345C26.632 17.7345 25.974 18.3939 25.974 19.1921V19.3656C25.974 20.1638 26.632 20.8232 27.4286 20.8232C28.2251 20.8232 28.8831 20.1638 28.8831 19.3656V19.1921C28.8831 18.3939 28.2251 17.7345 27.4286 17.7345ZM20.329 12.2163C19.5325 12.2163 18.8745 12.8757 18.8745 13.6739V13.8822C18.8745 14.6804 19.5325 15.3398 20.329 15.3398C21.1255 15.3398 21.7836 14.6804 21.7836 13.8822V13.7086C21.7836 12.8757 21.1255 12.2163 20.329 12.2163ZM48.6234 15.3398C49.4199 15.3398 50.0779 14.6804 50.0779 13.8822V13.7086C50.0779 12.9104 49.4199 12.251 48.6234 12.251C47.8268 12.251 47.1688 12.9104 47.1688 13.7086V13.8822C47.1688 14.6804 47.8268 15.3398 48.6234 15.3398ZM41.6623 17.4221C40.8658 17.4221 40.2078 18.0815 40.2078 18.8797V19.088C40.2078 19.8862 40.8658 20.5456 41.6623 20.5456C42.4589 20.5456 43.1169 19.8862 43.1169 19.088V18.9144C43.1169 18.0815 42.4935 17.4221 41.6623 17.4221ZM56 0V43H13.0909V0H56ZM23.2381 13.7086C23.2381 12.0775 21.9221 10.7587 20.2944 10.7587C18.6667 10.7587 17.3506 12.0775 17.3506 13.7086V13.8822C17.3506 15.0274 18.0087 16.0339 18.9784 16.5198C18.0087 17.0056 17.3506 18.0121 17.3506 19.1574H18.8398C18.8398 18.6368 19.1169 18.1509 19.5671 17.908V25.4044C19.1515 25.1614 18.8398 24.6755 18.8398 24.155H17.3506C17.3506 25.7861 18.6667 27.1049 20.2944 27.1049C21.9221 27.1049 23.2381 25.7861 23.2381 24.155H21.7489C21.7489 24.6755 21.4719 25.1614 21.0216 25.4044V17.8733C21.4372 18.1162 21.7489 18.6021 21.7489 19.1227H23.2381C23.2381 17.9774 22.5801 16.9709 21.6104 16.4851C22.5801 15.9992 23.2381 14.9927 23.2381 13.8475V13.7086ZM30.3377 19.1921C30.3377 17.5609 29.0216 16.2421 27.3939 16.2421C25.7662 16.2421 24.4502 17.5609 24.4502 19.1921V19.3656C24.4502 20.5109 25.1082 21.5174 26.0779 22.0032C25.1082 22.4891 24.4502 23.4956 24.4502 24.6408V32.276H25.974V24.6408C25.974 23.8426 26.632 23.1832 27.4286 23.1832C28.2251 23.1832 28.8831 23.8426 28.8831 24.6408V32.276H30.3723V24.6408C30.3723 23.4956 29.7143 22.4891 28.7446 22.0032C29.7143 21.5174 30.3723 20.5109 30.3723 19.3656V19.1921H30.3377ZM33.039 24.0856V23.7385L36.1905 21.4826C37.5065 20.5456 37.8182 18.7062 36.8831 17.3874C36.6061 17.0056 36.2251 16.6933 35.8095 16.4504C36.7792 15.9645 37.4372 14.958 37.4372 13.8128V13.6392C37.4372 12.0081 36.1212 10.6893 34.4935 10.6893C32.8658 10.6893 31.5498 12.0081 31.5498 13.6392V13.8822C31.5498 15.0274 32.2078 16.0339 33.1775 16.5198C32.2078 17.0056 31.5498 18.0121 31.5498 19.1574V24.1203C31.5498 25.7514 32.8658 27.0702 34.4935 27.0702C36.1212 27.0702 37.4372 25.7514 37.4372 24.1203H35.9481C35.9481 24.9185 35.29 25.5779 34.4935 25.5779C33.697 25.5779 33.039 24.9185 33.039 24.0856ZM44.6061 18.9144C44.6061 17.2833 43.29 15.9645 41.6623 15.9645C40.0346 15.9645 38.7186 17.2833 38.7186 18.9144V19.088C38.7186 20.1985 39.342 21.1703 40.2771 21.6909C39.2727 22.1768 38.5801 23.1832 38.5801 24.3632V29.3261C38.5801 30.9572 39.8961 32.276 41.5238 32.276C43.1515 32.276 44.4675 30.9572 44.4675 29.3261H42.9784C42.9784 30.1243 42.3203 30.7837 41.5238 30.7837C40.7273 30.7837 40.0693 30.1243 40.0693 29.3261V24.3285C40.0693 23.5303 40.7273 22.8709 41.5238 22.8709C42.3203 22.8709 42.9784 23.5303 42.9784 24.3285H44.4675C44.4675 23.2179 43.8442 22.2462 42.9091 21.7256C43.9134 21.2397 44.6061 20.2333 44.6061 19.0533V18.9144ZM47.3074 24.0856V19.1227C47.3074 18.3245 47.9654 17.6651 48.7619 17.6651C49.5584 17.6651 50.2165 18.3245 50.2165 19.1227H51.7056C51.7056 17.9427 51.013 16.9362 50.0087 16.4504C50.9437 15.9645 51.5671 14.9927 51.5671 13.8475V13.6739C51.5671 12.0428 50.2511 10.724 48.6234 10.724C46.9957 10.724 45.6797 12.0428 45.6797 13.6739V13.8822C45.6797 15.0621 46.3723 16.0686 47.3766 16.5545C46.4762 17.0404 45.8182 18.0121 45.8182 19.1574V24.1203C45.8182 25.7514 47.1342 27.0702 48.7619 27.0702C50.3896 27.0702 51.7056 25.7514 51.7056 24.1203H50.2165C50.2165 24.9185 49.5584 25.5779 48.7619 25.5779C47.9654 25.5779 47.3074 24.9185 47.3074 24.0856Z" fill="white"/>
</svg>

<svg width="56" height="43" fill="none" xmlns="http://www.w3.org/2000/svg"><path d="M.208 28.528v-1.909h8.589v2.464L2.7 32.866v.035h6.096v1.908H.207v-2.568l5.958-3.644v-.034H.208v-.035zm5.09-6.074v-3.748h-1.73v3.714H1.973v-3.922H.242v5.83h8.59V18.29H7.1v4.164H5.299zM1.975 36.961H.242V43h1.732v-2.082h5.09V43h1.733V36.961H7.065v2.083H1.974V36.96zM7.03 11.28c.173.313.243.66.243 1.041 0 .348-.07.66-.208.938a1.82 1.82 0 01-.589.763 3.03 3.03 0 01-.866.52c-.346.14-.692.174-1.108.174-.38 0-.762-.07-1.108-.173a3.03 3.03 0 01-.866-.521 2.282 2.282 0 01-.589-.798 2.333 2.333 0 01-.207-.972c0-.347.069-.66.173-.937.104-.278.311-.486.52-.694L1.246 9.162c-.243.174-.416.382-.589.625s-.277.486-.38.729c-.105.243-.174.52-.209.763-.034.278-.069.52-.069.764a5.6 5.6 0 00.312 1.874c.207.555.52 1.041.9 1.457.381.417.866.73 1.42.972.554.243 1.178.347 1.87.347.693 0 1.316-.104 1.87-.347s1.04-.555 1.42-.972c.381-.416.693-.902.9-1.457.208-.555.312-1.18.312-1.874 0-.59-.104-1.18-.346-1.736-.242-.555-.623-1.006-1.143-1.388l-1.177 1.562c.311.243.52.486.692.798zm-.692-9.717c.277.208.52.45.692.729.173.312.243.659.243 1.04 0 .348-.07.66-.208.938a1.82 1.82 0 01-.589.763 3.591 3.591 0 01-.866.52c-.346.14-.692.174-1.108.174-.38 0-.762-.069-1.108-.173a3.027 3.027 0 01-.866-.52c-.242-.174-.45-.452-.589-.764a2.221 2.221 0 01-.207-.972c0-.347.069-.66.173-.937.104-.278.311-.486.52-.694L1.246.208a3.385 3.385 0 00-.589.625c-.139.243-.277.486-.38.729-.105.277-.174.52-.209.798-.034.243-.069.52-.069.763a5.6 5.6 0 00.312 1.875c.207.555.52 1.04.9 1.457.381.417.866.729 1.42.972.554.243 1.178.347 1.87.347.693 0 1.316-.104 1.87-.347s1.04-.555 1.42-.972c.381-.416.693-.902.9-1.457a5.6 5.6 0 00.312-1.875c0-.59-.104-1.18-.346-1.735C8.416.833 8.035.382 7.515 0L6.338 1.562zM34.493 15.34c.797 0 1.455-.66 1.455-1.458v-.173c0-.799-.658-1.458-1.455-1.458-.796 0-1.454.66-1.454 1.458v.173c0 .798.658 1.458 1.454 1.458zm1.49 3.783c0-.799-.658-1.458-1.455-1.458-.796 0-1.454.66-1.454 1.458v2.81l2.285-1.63c.381-.278.624-.73.624-1.18zm-8.554-1.389c-.797 0-1.455.66-1.455 1.458v.174c0 .798.658 1.457 1.455 1.457.796 0 1.454-.66 1.454-1.457v-.174c0-.798-.658-1.457-1.454-1.457zm-7.1-5.518c-.797 0-1.454.66-1.454 1.458v.208c0 .798.657 1.458 1.454 1.458.796 0 1.455-.66 1.455-1.458v-.173c0-.833-.659-1.493-1.455-1.493zm28.294 3.124c.797 0 1.455-.66 1.455-1.458v-.173c0-.799-.658-1.458-1.455-1.458-.796 0-1.454.66-1.454 1.458v.173c0 .798.658 1.458 1.454 1.458zm-6.96 2.082c-.797 0-1.455.66-1.455 1.458v.208c0 .798.658 1.458 1.454 1.458.797 0 1.455-.66 1.455-1.458v-.174c0-.833-.623-1.492-1.455-1.492zM56 0v43H13.09V0H56zM23.238 13.709a2.944 2.944 0 10-5.887 0v.173c0 1.145.658 2.152 1.627 2.638a2.953 2.953 0 00-1.627 2.637h1.489c0-.52.277-1.006.727-1.249v7.496a1.49 1.49 0 01-.727-1.249h-1.49a2.944 2.944 0 105.888 0h-1.49c0 .52-.276 1.006-.726 1.25v-7.532c.415.243.727.73.727 1.25h1.49a2.953 2.953 0 00-1.629-2.638 2.953 2.953 0 001.628-2.637v-.14zm7.1 5.483a2.944 2.944 0 10-5.888 0v.174c0 1.145.658 2.151 1.628 2.637a2.953 2.953 0 00-1.628 2.638v7.635h1.524v-7.635c0-.798.658-1.458 1.455-1.458.796 0 1.454.66 1.454 1.458v7.635h1.49v-7.635a2.953 2.953 0 00-1.628-2.638 2.953 2.953 0 001.627-2.637v-.174h-.034zm2.701 4.894v-.348l3.151-2.255a2.947 2.947 0 00.693-4.096c-.277-.381-.658-.694-1.074-.937a2.953 2.953 0 001.628-2.637v-.174a2.944 2.944 0 10-5.887 0v.243c0 1.145.658 2.152 1.628 2.638a2.953 2.953 0 00-1.628 2.637v4.963a2.944 2.944 0 105.887 0h-1.489c0 .799-.658 1.458-1.455 1.458-.796 0-1.454-.66-1.454-1.492zm11.567-5.172a2.944 2.944 0 10-5.887 0v.174c0 1.11.623 2.082 1.558 2.603-1.004.486-1.697 1.492-1.697 2.672v4.963a2.944 2.944 0 105.888 0h-1.49c0 .798-.658 1.458-1.454 1.458-.797 0-1.455-.66-1.455-1.458v-4.998c0-.798.658-1.457 1.455-1.457.796 0 1.454.66 1.454 1.457h1.49c0-1.11-.624-2.082-1.559-2.602 1.004-.486 1.697-1.493 1.697-2.673v-.139zm2.701 5.172v-4.963c0-.799.658-1.458 1.455-1.458.796 0 1.455.66 1.455 1.458h1.489c0-1.18-.693-2.187-1.697-2.673a2.902 2.902 0 001.558-2.602v-.174a2.944 2.944 0 10-5.887 0v.208c0 1.18.692 2.187 1.697 2.673a2.968 2.968 0 00-1.559 2.602v4.963a2.944 2.944 0 105.888 0h-1.49c0 .799-.658 1.458-1.454 1.458-.797 0-1.455-.66-1.455-1.492z" fill="#fff"/></svg>
